X:1
T:Title
%%score { 1 | ( 2 3 ) }
L:1/8
M:6/8
K:F
V:1 treble nm="Grand Piano"
V:2 bass 
V:3 bass 
V:1
 z3 z2[Q:1/4=90] C | [CA]2 [CA] [DB]2 [CA] | [CA] G2- G2 A | [Ec]2 B G2 A | [F,A,F]6 | %5
 [CA]2 [CA] [DB]2 [CA] | [EA] G2- G2 c | [F=B]2 [=B,G] [A,F]2[K:bass] [B,D] | %8
[M:5/8] [E,C]-[E,C]- [E,C]3 |[M:1/8][K:treble] [Fc] |[M:3/4] [Ed][Ec] [CEB] [B,E]2 [DEB] | %11
 [DFB][CFA]- [CFA]3 [CFA] | [^CEA]2 [A,CE] [A,DF]2 [DEG] | [^CEA]4- [CEA][CEA] | %14
[M:7/8] [DG]2 [DG] [DGd]3 [B,DG] | [A,CF]2 [A,CF] [Fc]3 C |[M:3/4] [=B,D] [B,A]2 [_B,G]2 [A,F] | %17
[M:5/8] [A,F]-[A,F]- [A,F]3 |] %18
V:2
 z6 | [F,,F,]3 [F,,F,]3 | z B,2- B,2 C | z2 D B,2 C | F,,3- F,,2 C | [F,,F,]3 [F,,F,]3 | %6
 z E2- E2 E | [G,,G,]3 [G,,,G,,]3 |[M:5/8] [C,,C,]-[C,,C,]- [C,,C,]3 |[M:1/8] [C,A,] | %10
[M:3/4] [C,B,][C,B,] C, C,2 C, | F,F,- F,3 F, | A,2 A,, D,2 B,, | A,,4- A,,A,, | %14
[M:7/8] B,,2 B,, B,,3 B,, | C,2 C, [C,A,]3 [A,,F,] |[M:3/4] [G,,F,] [G,,F,]2 [C,E,]2 [F,,F,] | %17
[M:5/8] [F,,F,]-[F,,F,]- [F,,F,]3 |] %18
V:3
 x6 | x6 | [C,,C,]6 | [C,,C,]6 | x6 | x6 | [G,,G,]6 | x6 |[M:5/8] x5 |[M:1/8] x |[M:3/4] x6 | x6 | %12
 x6 | x6 |[M:7/8] x7 | x7 |[M:3/4] x6 |[M:5/8] x5 |] %18

